src/main/resources/icons/AllIcons/ide/macro/recording_3.svg

<svg xmlns="http://www.w3.org/2000/svg" width="16" height="16" viewBox="0 0 16 16"><rect id="frame" width="16" height="16" fill="none"/><path fill="#6E6E6E" fill-rule="evenodd" d="M12 15h-1v-2H5v2H4v-1H3v1H2V1h3v4h6V1h3v14h-1v-1h-1v1zM5 6v6h6V6H5zM3 2v1h1V2H3zm0 2v1h1V4H3zm0 2v1h1V6H3zm0 2v1h1V8H3zm0 2v1h1v-1H3zm0 2v1h1v-1H3zm9 0v1h1v-1h-1zm0-2v1h1v-1h-1zm0-2v1h1V8h-1zm0-2v1h1V6h-1zm0-2v1h1V4h-1zm0-2v1h1V2h-1z"/></svg>

<!-- Copyright 2000-2021 JetBrains s.r.o. Use of this source code is governed by the Apache 2.0 license that can be found in the LICENSE file. -->
<svg xmlns="http://www.w3.org/2000/svg" width="16" height="16" viewBox="0 0 16 16">
  <path fill="#6E6E6E" fill-rule="evenodd" d="M12,15 L11,15 L11,13 L5,13 L5,15 L4,15 L4,14 L3,14 L3,15 L2,15 L2,1 L5,1 L5,5 L11,5 L11,1 L14,1 L14,15 L13,15 L13,14 L12,14 L12,15 Z M5,6 L5,12 L11,12 L11,6 L5,6 Z M3,2 L3,3 L4,3 L4,2 L3,2 Z M3,4 L3,5 L4,5 L4,4 L3,4 Z M3,6 L3,7 L4,7 L4,6 L3,6 Z M3,8 L3,9 L4,9 L4,8 L3,8 Z M3,10 L3,11 L4,11 L4,10 L3,10 Z M3,12 L3,13 L4,13 L4,12 L3,12 Z M12,12 L12,13 L13,13 L13,12 L12,12 Z M12,10 L12,11 L13,11 L13,10 L12,10 Z M12,8 L12,9 L13,9 L13,8 L12,8 Z M12,6 L12,7 L13,7 L13,6 L12,6 Z M12,4 L12,5 L13,5 L13,4 L12,4 Z M12,2 L12,3 L13,3 L13,2 L12,2 Z"/>
</svg>
